!!!OTL: Shengchan mang
!!!ARE: Asia, China,ÿHenan Shangcheng
!! IV, 111
!!!SCT: C1935
!!!YEM: Copyright 1995, estate of Helmut Schaffrath.
**kern
*ICvox
*Ivox
*M2/4
*k[f#c#]
*D:
{8a
16b
16dd
8b
8a
=1
16b
16dd
16b
16a
4f#}
=2
{8.f#
16dd
8b
8a
=3
8b
8a
4f#}
=4
{4.dd
8ee
=5
8b
8dd
8b
8a}
=6
{8.b
16dd
8b
8a
=7
8f#
8dd
8b
8a
=8
8b
8a
4f#}
=9
{8f#
4f#
8a
=10
8.b
16dd
8b
8a
=11
8e
4e
8a
=12
8a
16f#
16e}
{8.f#
16d
=13
8e
4e
8d
=14
8a
8f#
8.e}
{16f#
=15
8B
8d
4e}
=16
{8a
8b
8a
8b
=17
8a
8f#
4e}
=18
{8B
8d
8B
8d
=19
8B
8d
4e}
=20
{8a
8a
8a
8e
=21
8f#
4a
16f#
16e
=22
2d}
==
!!!AGN: Xiaodiao, Sijimang
!!!AMT: simple duple
!!!AIN: vox
!!!EED: Helmut Schaffrath
!!!EEV: 1.0
*-
